X:1
T:Aus tiefer not
T:Aus tiefer not
T:Benedictus Ducis
T:Source : Trium vocum cantiones---Nürnberg---J.Petreius---1541. Editor : André Vierendeels (31/08/15).
T:Notes : Original clefs : C1, C3, F3 Editorial accidentals above the staff Original note values have been halved Original text middle German
T:ps 130
C:Benedictus Ducis
%%score [ 1 [ 2 3 ] ]
L:1/8
Q:1/4=85
M:2/2
K:C
V:1 treble nm="Discantus" snm="D"
V:2 treble-8 nm="Tenor 1" snm="T 1"
V:3 treble-8 nm="Tenor 2" snm="T 2"
V:1
 B8- | B8 | E4 B4 | c4 B4 | G4 A4 | B4 z2 B2 | c4 B2 A2- | A2 G2 F4 | E8 |1 z8 :|2 A4 G2 c2 || %11
w: Aus|_|tief- fer|not schrey|ich zu|dir, Herr|Gott er- hör|_ mein ruf-|fen,||dann wann du,|
w: Dein|_|gne- dig|o- ren|ker zu|mir, und|mei- ner bit|_ sie öf-|fen,|||
 B2 G2 A2 B2 | c2 B3 A A2- | A2 G2 A2 c2 | c2 B2 c2 d2 | G3 A B2 c2 | A4 G4 | z4 G4 | c4 B2 A2 | %19
w: Herr, wilt se- *||* hen an, was|sünd und un- recht|ist _ _ _|ge- tan,|wer|kan, Herr, für|
w: ||||||||
 A2 G2 F4 | E8- | E8- | E8 |] %23
w: dir _ blei-|ben.|_||
w: ||||
V:2
 e8 | d4 d4 | c4 d2 e2- | e2 dc d2 d2 | e4 z2 c2 | d2 e2 f2 ed | cdef g2 f2- | f2 e4 d2 | e8 |1 %9
w: Aus|tie- fer|not schrey ich|_ _ _ _ zu|dir, Herr|Gott, er- hör _ _|_ _ _ _ _ mein|_ ruf- *|fen|
w: Dein|gne- dig|o- ren ker|_ _ _ _ zu|mir, und|mei- ner bit _ _|_ _ _ _ _ sie|_ öf- *|fen,|
 z8 :|2 z8 || z4 z2 e2 | e3 d c2 A2 | B2 B2 A2 e2 | f2 g2 e2 d2 | e3 d/c/ d2 c2- | c2 A2 B2 c2 | %17
w: ||dann|wann du, Herr, wilt|se- hen an, was|sünd und un- recht|ist _ _ _ _|_ _ _ ge-|
w: ||||||||
 d4 z2 e2 | e2 f2 g2 c2 | d2 e4 d2 | e2 c4 B2 | c8 | B8 |] %23
w: tan, wer|kan, Herr, für dir|blei- * *|||ben.|
w: ||||||
V:3
 E8 | G4 G4 | A4 G4 | A4 G4 | C4 z4 | G4 F2 G2 | A4 G2 d2- | d2 G2 A2 B2 | c3 B A2 G2 |1 F4 E4 :|2 %10
w: Aus|tie- fer|not schrey|ich zu|dir,|Herr Gott, er-|hör mein ruf-|||* fen,|
w: Dein|gne- dig|o- ren|ker zu|mir,|und mei- ner|bit sie öf-|||* fen,|
 F4 E2 A2 || G2 c3 B G2 | A2 E2 F2 F2 | E4 z2 A2 | A2 G2 A2 B2 | c3 B/A/ G2 A2 | F4 E4 | z2 G2 c4 | %18
w: dann wann du,|Herr, wilt _ _|se- * * hen|an, was|sünd und un- recht|ist _ _ _ _|ge- tan,|wer kan,|
w: ||||||||
 A4 G2 F2- | F2 G2 A2 B2 | c2 A4 G2 | A8 | E8 |] %23
w: Herr, für dir|_ blei- * *|||ben.|
w: |||||

